lib/preview/nrk-logo-preview-nrk-p1-pluss-on-light.svg

<svg width="64" height="14" viewBox="0 0 64 14" fill="none" xmlns="http://www.w3.org/2000/svg">
<path d="M0 12.9981V0.999167H3.93719V12.9981H0ZM9.29381 2.90886L11.5581 12.9981H7.24917L4.54549 0.999167H6.96218C7.51635 0.991975 8.05406 1.18733 8.4745 1.54847C8.89562 1.89446 9.18495 2.37477 9.29381 2.90886ZM12.1495 12.9981V0.999167H16.0867V12.9981H12.1495ZM19.0605 5.56218C18.6362 5.56631 18.2188 5.45531 17.8525 5.24104C17.4912 5.0322 17.1911 4.73204 16.9823 4.37068C16.7678 4.00441 16.6568 3.58684 16.661 3.1624C16.6561 2.74054 16.7672 2.32546 16.9823 1.9625C17.1933 1.60507 17.4931 1.30817 17.8525 1.1006C18.2189 0.88658 18.6362 0.775592 19.0605 0.779461C19.4822 0.774919 19.8971 0.886006 20.2602 1.1006C20.616 1.30999 20.9127 1.60664 21.122 1.9625C21.3368 2.32556 21.4479 2.74057 21.4433 3.1624C21.4473 3.58681 21.3363 4.0043 21.122 4.37068C20.9149 4.73045 20.6179 5.03036 20.2602 5.24104C19.8971 5.45605 19.4819 5.56717 19.0599 5.56218H19.0605ZM22.0516 12.9981V0.999167H25.9892V12.9981H22.0516ZM30.9737 7.55631C30.9848 7.56795 31.0693 7.70596 31.2272 7.97035C31.3851 8.23474 31.5907 8.57276 31.8439 8.98437C32.0974 9.39578 32.3649 9.83234 32.6463 10.2941C32.9278 10.7558 33.1926 11.1924 33.4408 11.6039C33.6881 12.0153 33.9697 12.48 34.2857 12.9981H29.9598C29.6893 12.5587 29.4441 12.1615 29.2245 11.8066C29.0048 11.4517 28.7713 11.0687 28.5238 10.6574C28.2758 10.2466 28.0306 9.84661 27.7882 9.45754C27.5458 9.06847 27.3375 8.72769 27.1633 8.43514C26.9883 8.14239 26.8671 7.9452 26.7997 7.84361C26.6325 7.59152 26.5336 7.30037 26.5127 6.99862C26.5294 6.70901 26.6226 6.42905 26.7828 6.18719C26.8504 6.07452 26.9743 5.87451 27.1545 5.58721C27.3348 5.29991 27.546 4.95913 27.7882 4.5648C28.0304 4.17047 28.2756 3.76768 28.5238 3.35645C28.772 2.94522 29.0056 2.55931 29.2245 2.19878C29.4445 1.83863 29.6897 1.43866 29.9598 0.998892H34.2857L30.9396 6.45757C30.8361 6.61964 30.7777 6.80642 30.7706 6.99862C30.7818 7.2004 30.8522 7.3944 30.9731 7.55631H30.9737Z" fill="#0A2343"/>
<path d="M46.9919 2.5532C46.7844 2.23272 46.5181 1.95461 46.2071 1.73359C45.8604 1.49049 45.4753 1.30765 45.0679 1.19278C44.5734 1.05609 44.0619 0.990757 43.549 0.998728H38.8571V12.9975H40.6292V8.68809H43.684C44.3735 8.69868 45.0539 8.52981 45.6586 8.198C46.2382 7.87667 46.7195 7.40348 47.0509 6.82913C47.4062 6.19537 47.5841 5.4773 47.5657 4.75073C47.5672 4.35795 47.5219 3.9664 47.4307 3.58437C47.3429 3.21853 47.1946 2.86998 46.9919 2.5532ZM45.4223 6.19511C45.1954 6.55146 44.8616 6.82668 44.4688 6.98124C43.9919 7.16177 43.4845 7.24784 42.9749 7.23471H40.6292V2.469H43.2114C43.7047 2.45026 44.1955 2.54568 44.6459 2.74784C45.0042 2.92131 45.2972 3.20576 45.4813 3.55903C45.6764 3.95534 45.772 4.39331 45.7598 4.83497C45.7792 5.31131 45.6621 5.78325 45.4223 6.19511Z" fill="#015F88"/>
<path d="M51.1686 1.39583C50.9267 1.52539 50.6905 1.64643 50.46 1.75891C50.2296 1.87139 49.9961 1.98404 49.7596 2.09689C49.5234 2.20956 49.2815 2.31126 49.034 2.40111C48.7865 2.49096 48.5218 2.58164 48.2405 2.67149L48.6121 4.10797C48.9496 4.00657 49.2561 3.90518 49.5316 3.80378C49.8017 3.70497 50.0664 3.59214 50.3248 3.46577C50.5783 3.34221 50.8314 3.20712 51.0842 3.06046L51.0926 3.05541V12.9981H52.8476V0.999259H51.9365C51.6663 1.13389 51.4103 1.26608 51.1686 1.39583Z" fill="#015F88"/>
<path d="M59.7168 6.33876V2.92529H58.2316V6.33876H54.8056V7.67384H58.2316V11.071H59.7168V7.67384H63.1428V6.33876H59.7168Z" fill="#015F88"/>
</svg>

<svg xmlns="http://www.w3.org/2000/svg" viewBox="0 0 64 14"><path fill="#0A2343" d="M0 12.998V1h3.937v12H0Zm9.294-10.09 2.264 10.09H7.25L4.545 1h2.417a2.276 2.276 0 0 1 1.513.55c.42.345.71.826.819 1.36Zm2.855 10.09V1h3.938v12h-3.938Zm6.912-7.436a2.382 2.382 0 0 1-2.4-2.4 2.301 2.301 0 0 1 .321-1.2 2.41 2.41 0 0 1 3.278-.861c.356.209.653.506.862.861.215.364.326.779.321 1.2a2.35 2.35 0 0 1-.321 1.209 2.4 2.4 0 0 1-.862.87 2.302 2.302 0 0 1-1.2.321Zm2.99 7.436V1h3.938v12h-3.937Zm8.923-5.442c.01.012.095.15.253.414.158.265.364.603.617 1.014a312.736 312.736 0 0 1 1.597 2.62c.247.411.529.876.845 1.394H29.96c-.27-.44-.516-.836-.736-1.191-.22-.355-.453-.738-.7-1.15-.248-.41-.493-.81-.736-1.2-.242-.389-.45-.73-.625-1.022-.175-.293-.296-.49-.363-.591a1.747 1.747 0 0 1-.287-.845c.016-.29.11-.57.27-.812.067-.112.191-.312.371-.6a182.106 182.106 0 0 0 1.37-2.23l.7-1.158.736-1.2h4.326L30.94 6.458a1.08 1.08 0 0 0-.17.54c.012.202.082.396.203.558Z"/><path fill="#015F88" d="M46.992 2.553a3.017 3.017 0 0 0-.785-.82 3.763 3.763 0 0 0-1.14-.54A5.387 5.387 0 0 0 43.55.999h-4.692v11.998h1.772V8.689h3.055c.69.01 1.37-.158 1.975-.49a3.652 3.652 0 0 0 1.392-1.369 4.041 4.041 0 0 0 .515-2.078 4.942 4.942 0 0 0-.135-1.167 3.374 3.374 0 0 0-.44-1.03Zm-1.57 3.642c-.227.356-.56.632-.953.786-.477.18-.985.267-1.494.254h-2.346V2.469h2.582c.494-.019.985.077 1.435.279.358.173.651.458.835.811.195.396.291.834.279 1.276.02.476-.098.948-.338 1.36ZM51.169 1.396c-.242.13-.478.25-.709.363l-.7.338a8.124 8.124 0 0 1-.726.304c-.248.09-.512.18-.794.27l.372 1.437c.338-.101.644-.203.92-.304.27-.099.534-.212.793-.338.253-.124.506-.259.76-.406l.008-.005v9.943h1.755V1h-.911c-.27.135-.527.267-.768.397ZM59.717 6.339V2.925h-1.485V6.34h-3.426v1.335h3.426v3.397h1.485V7.674h3.426V6.339h-3.426Z"/></svg>
